X:547
T:Miss Evans'. EHo.547
A:England; East Yorkshire
M:3/8
L:1/8
Q:3/8=50
B:Edward Holmes MS, c1846, Beverley, Yorkshire.
C:
O:
Z:Village Music Project 2018, Jake Wade. Beverley, East Yorks
K:A
yA | (EA).A | (FB).B | (G/B/) ee | (d/c/)(B/A/) (G/F/) |
(EA).A | (FB).B | (G/B/) eG | A2 :|
|: (c/d/) | (e/d/) ca | (e/c/) Ac | (B/c/)(d/B/A/G/) | (A/G/)(A/B/)(c/d/) |
(e/d/) ca | (e/c/) Ac | (B/c/)(d/B/)(A/G/) | A2 :|
|: A | ccc | ddd | {f/}(e/^d/)(e/f/)(e/=d/) | dcA |
ccc | ddd | {f/}(e/^d/)(e/f/)(e/g/) | a2 :|

